icons/1_Primary/Sendy.svg

<svg xmlns="http://www.w3.org/2000/svg" width="1024" height="1024" fill="none">
   <g clip-path="url(#a)">
      <path fill="#56595B" d="M512 1024c282.77 0 512-229.23 512-512S794.77 0 512 0 0 229.23 0 512s229.23 512 512 512Z"/>
      <path fill="#fff" d="m346 396.16 102.81 105.93L346 605.54V396.16Zm333.11-2.85-103.2 108.57 103.35 105.41-.15-213.98ZM664.39 626l-111.5-119h-81.76L359.62 626h304.77ZM512 266.69c-135.95 0-246.55 110-246.55 245.31S376.05 757.31 512 757.31c135.95 0 246.55-110.04 246.55-245.31 0-135.27-110.6-245.31-246.55-245.31Zm0-33.45C666.64 233.23 792 358 792 512S666.64 790.77 512 790.77 232 666 232 512s125.36-278.77 280-278.77v.01Z"/>
   </g>
   <defs>
      <clipPath id="a">
         <path fill="#fff" d="M0 0h1024v1024H0z"/>
      </clipPath>
   </defs>
</svg>

<svg width="1024" height="1024" viewBox="0 0 1024 1024" fill="none" xmlns="http://www.w3.org/2000/svg">
<g clip-path="url(#clip0_2_3438)">
<path d="M512 1024C794.77 1024 1024 794.77 1024 512C1024 229.23 794.77 0 512 0C229.23 0 0 229.23 0 512C0 794.77 229.23 1024 512 1024Z" fill="#56595B"/>
<path d="M346 396.16L448.81 502.09L346 605.54V396.16ZM679.11 393.31L575.91 501.88L679.26 607.29L679.11 393.31ZM664.39 626L552.89 507H471.13L359.62 626H664.39ZM512 266.69C376.05 266.69 265.45 376.69 265.45 512C265.45 647.31 376.05 757.31 512 757.31C647.95 757.31 758.55 647.27 758.55 512C758.55 376.73 647.95 266.69 512 266.69ZM512 233.24C666.64 233.23 792 358 792 512C792 666 666.64 790.77 512 790.77C357.36 790.77 232 666 232 512C232 358 357.36 233.23 512 233.23V233.24Z" fill="white"/>
</g>
<defs>
<clipPath id="clip0_2_3438">
<rect width="1024" height="1024" fill="white"/>
</clipPath>
</defs>
</svg>
